X: 707
T: GUIRY'S FAVORITE
M:6/8
L:1/8
B:O'NEILL'S 707
N:"collected by Carey"
Z:Transcribed by A. LEE WORMAN
K:C
e/^f/|gea ged|cAB c2 d|eaa age|ed^c de^f|
gea ged|cAB cde|fed ecA|GFE D2:|
||A/B/|cBc A2 G|E(cB) cde|(de)(d c)AG|(Ad)(c d)ed|
cBc A2 G|EcB cde|fed ecA|GFE D2:|


